X: 9841
T: Denny Mescall's
R: slide
M: 12/8
K: Gmajor
|:B2B BAB d2B G2D|GBd g2e d2B G2A|
B2B BAB d2B G2A|1 Bdd B2A G3 G2A:|2 Bdd B2A G3 GBd||
|:g3 gfe dcB c2d|eaa a2b a2g e2f|
g3 gfe dcB c2d|1 e/f/ge f/g/af g3 def:|2 e/f/ge f/g/af g3 g2d||

